**kern	**silbe	**kern	**silbe	**kern	**silbe
*ICvox	*	*ICvox	*	*ICvox	*
=1	=1	=1	=1	=1	=1
*B:	*	*B:	*	*B:	*
*M4/4	*	*M4/4	*	*M4/4	*
*clefG2	*	*clefG2	*	*clefG2	*
2r	.	1r	.	1r	.
8r	.	.	.	.	.
8F#	We've	.	.	.	.
8G#	been	.	.	.	.
8A#	to-	.	.	.	.
=2	=2	=2	=2	=2	=2
[4c#	-ge-	1r	.	1r	.
16c#]	_	.	.	.	.
16B	_	.	.	.	.
16B	-ther	.	.	.	.
[16A#	now	.	.	.	.
8A#]	_	.	.	.	.
16B	for	.	.	.	.
[16A#	such	.	.	.	.
16A#]	_	.	.	.	.
8G#	a	.	.	.	.
[16F#	long	.	.	.	.
=3	=3	=3	=3	=3	=3
8F#]	_	1r	.	1r	.
16F#	time	.	.	.	.
16G#	_	.	.	.	.
4r	.	.	.	.	.
8r	.	.	.	.	.
8F#	Through	.	.	.	.
16G#	e-	.	.	.	.
8A#	-very	.	.	.	.
[16c#	trial	.	.	.	.
=4	=4	=4	=4	=4	=4
4.c#]	_	1r	.	1r	.
16B	we'd	.	.	.	.
[16A#	e-	.	.	.	.
16A#]	_	.	.	.	.
16B	-ver	.	.	.	.
8r	.	.	.	.	.
16A#	care	.	.	.	.
16G#	_	.	.	.	.
16F#	to	.	.	.	.
[16G#	go	.	.	.	.
=5	=5	=5	=5	=5	=5
16G#]	_	1r	.	1r	.
16r	.	.	.	.	.
8r	.	.	.	.	.
4r	.	.	.	.	.
8r	.	.	.	.	.
16B	When	.	.	.	.
8c#	I	.	.	.	.
8d#	look	.	.	.	.
[16f#	back	.	.	.	.
=6	=6	=6	=6	=6	=6
4.f#]	_	1r	.	1r	.
16e	I	.	.	.	.
[16d#	al-	.	.	.	.
16d#]	_	.	.	.	.
8e	-most	.	.	.	.
16d#	can't	.	.	.	.
8c#	_	.	.	.	.
16B	be-	.	.	.	.
[16B	-lieve	.	.	.	.
=7	=7	=7	=7	=7	=7
16B]	_	1r	.	1r	.
16c#	it	.	.	.	.
8r	.	.	.	.	.
8.r	.	.	.	.	.
16B	We're	.	.	.	.
8e	not	.	.	.	.
16d#	the	.	.	.	.
[16B	same	.	.	.	.
8B]	_	.	.	.	.
8e	peo-	.	.	.	.
=8	=8	=8	=8	=8	=8
8d#	-ple	1r	.	1r	.
8r	.	.	.	.	.
8r	.	.	.	.	.
8B	that	.	.	.	.
8e	we	.	.	.	.
8d#	used	.	.	.	.
8B	to	.	.	.	.
[8c#	know	.	.	.	.
=9	=9	=9	=9	=9	=9
8c#]	_	1r	.	1r	.
8r	.	.	.	.	.
4r	.	.	.	.	.
8r	.	.	.	.	.
16F#	With	.	.	.	.
8G#	all	.	.	.	.
8A#	the	.	.	.	.
[16c#	years	.	.	.	.
=10	=10	=10	=10	=10	=10
4.c#]	_	1r	.	1r	.
16B	be-	.	.	.	.
[16A#	-hind	.	.	.	.
16A#]	_	.	.	.	.
8B	me	.	.	.	.
[16A#	spent	.	.	.	.
8A#]	_	.	.	.	.
16G#	pre-	.	.	.	.
[16F#	-tend-	.	.	.	.
=11	=11	=11	=11	=11	=11
16F#]	_	1r	.	1r	.
16F#	-ing	.	.	.	.
8G#	_	.	.	.	.
4r	.	.	.	.	.
8r	.	.	.	.	.
8F#	I	.	.	.	.
16G#	did-	.	.	.	.
8A#	-'nt	.	.	.	.
[16c#	need	.	.	.	.
=12	=12	=12	=12	=12	=12
4c#_	_	1r	.	1r	.
16c#]	_	.	.	.	.
8B	some-	.	.	.	.
[16A#	-one	.	.	.	.
16A#]	_	.	.	.	.
8B	like	.	.	.	.
16A#	you	.	.	.	.
8G#	_	.	.	.	.
16F#	a-	.	.	.	.
[16G#	-round	.	.	.	.
=13	=13	=13	=13	=13	=13
8G#]	_	1r	.	1r	.
8r	.	.	.	.	.
4r	.	.	.	.	.
8r	.	.	.	.	.
16B	It	.	.	.	.
8c#	makes	.	.	.	.
8d#	it	.	.	.	.
[16f#	e-	.	.	.	.
=14	=14	=14	=14	=14	=14
4f#_	_	1r	.	1r	.
16f#]	_	.	.	.	.
8e	-ven	.	.	.	.
[16d#	hard-	.	.	.	.
8d#]	_	.	.	.	.
16e	-er	.	.	.	.
[16d#	to	.	.	.	.
8d#]	_	.	.	.	.
16c#	i-	.	.	.	.
[16B	-ma-	.	.	.	.
=15	=15	=15	=15	=15	=15
16B]	_	1r	.	1r	.
16c#	-gine	.	.	.	.
8r	.	.	.	.	.
8.r	.	.	.	.	.
16B	the	.	.	.	.
8e	life	.	.	.	.
8d#	I'd	.	.	.	.
8B	be	.	.	.	.
8e	liv-	.	.	.	.
=16	=16	=16	=16	=16	=16
8d#	-in'	1r	.	1r	.
8r	.	.	.	.	.
8r	.	.	.	.	.
8B	if	.	.	.	.
8e	I	.	.	.	.
8d#	had-	.	.	.	.
8B	-'nt	.	.	.	.
[8c#	found	.	.	.	.
=17	=17	=17	=17	=17	=17
8c#]	_	1r	.	1r	.
8r	.	.	.	.	.
4r	.	.	.	.	.
8c#	Some-	.	.	.	.
8d#	-one	.	.	.	.
8g#	to	.	.	.	.
[8f#	hold	.	.	.	.
=18	=18	=18	=18	=18	=18
8f#]	_	1r	.	1r	.
8g#	me	.	.	.	.
8r	.	.	.	.	.
8B	the	.	.	.	.
8B	way	.	.	.	.
8c#	that	.	.	.	.
8d#	you	.	.	.	.
8c#	do	.	.	.	.
=19	=19	=19	=19	=19	=19
2r	.	1r	.	1r	.
8c#	Some-	.	.	.	.
8d#	-one	.	.	.	.
8g#	who	.	.	.	.
[8f#	needs	.	.	.	.
=20	=20	=20	=20	=20	=20
8f#]	_	1r	.	1r	.
8g#	me	.	.	.	.
8r	.	.	.	.	.
8B	the	.	.	.	.
8B	way	.	.	.	.
8c#	I	.	.	.	.
8d#	need	.	.	.	.
8c#	you	.	.	.	.
=21	=21	=21	=21	=21	=21
2r	.	1r	.	1r	.
8c#	Some-	.	.	.	.
8d#	-one	.	.	.	.
8g#	to	.	.	.	.
[8f#	show	.	.	.	.
=22	=22	=22	=22	=22	=22
8f#]	_	1r	.	1r	.
8g#	me	.	.	.	.
8r	.	.	.	.	.
8G#	a	.	.	.	.
8B	way	.	.	.	.
8c#	that	.	.	.	.
8d#	is	.	.	.	.
8c#	true	.	.	.	.
=23	=23	=23	=23	=23	=23
2r	.	1r	.	1r	.
8e	Some-	.	.	.	.
8d#	-one	.	.	.	.
8B	to	.	.	.	.
8e	love	.	.	.	.
=24	=24	=24	=24	=24	=24
8d#	_	1r	.	1r	.
2..B	me	.	.	.	.
=25	=25	=25	=25	=25	=25
4r	.	1r	.	1r	.
8.r	.	.	.	.	.
16B	the	.	.	.	.
8e	way	.	.	.	.
16d#	that	.	.	.	.
[16c#	I	.	.	.	.
16c#]	_	.	.	.	.
[8.B	love	.	.	.	.
=26	=26	=26	=26	=26	=26
16B]	_	1r	.	1r	.
[8.B	you	.	.	.	.
2.B_	_	.	.	.	.
=27	=27	=27	=27	=27	=27
2B]	_	2r	.	1r	.
8.r	.	8.r	.	.	.
16F#	When	16A#	When	.	.
16G#	there	16B	there	.	.
8A#	was	8c#	was	.	.
[16c#	no-	[16e	no-	.	.
=28	=28	=28	=28	=28	=28
4c#_	_	4e_	_	1r	.
16c#]	_	16e]	_	.	.
8B	-one	8d#	-one	.	.
16A#	left	[16c#	left	.	.
8r	.	16c#]	_	.	.
.	.	16r	.	.	.
16B	for	16r	.	.	.
[16A#	me	[16c#	me	.	.
8A#]	_	8c#]	_	.	.
16G#	to	16c#	to	.	.
[16F#	turn	[16d#	turn	.	.
=29	=29	=29	=29	=29	=29
16F#]	_	16d#]	_	1r	.
16G#	to	16e	to	.	.
8r	.	8r	.	.	.
4r	.	4r	.	.	.
8.r	.	8.r	.	.	.
16F#	When	16A#	When	.	.
16G#	all	16B	all	.	.
8A#	the	8c#	the	.	.
[16c#	world	[16e	world	.	.
=30	=30	=30	=30	=30	=30
4c#_	_	4e_	_	1r	.
16c#]	_	16e]	_	.	.
8B	I	8g#	I	.	.
[16A#	knew	[16f#	knew	.	.
8A#]	_	8f#]	_	.	.
16B	was	16c#	was	.	.
16A#	fall-	8c#	fall-	.	.
16G#	_	.	.	.	.
8F#	-in'	8d#	-in'	.	.
[16G#	down	[16e	down	.	.
=31	=31	=31	=31	=31	=31
16G#]	_	16e]	_	1r	.
8.r	.	8.r	.	.	.
4r	.	4r	.	.	.
8r	.	2r	.	.	.
8B	Oh	.	.	.	.
16c#	there	.	.	.	.
8d#	were	.	.	.	.
[16f#	times	.	.	.	.
=32	=32	=32	=32	=32	=32
4f#_	_	1r	.	1r	.
16f#]	_	.	.	.	.
8e	I	.	.	.	.
[16d#	could	.	.	.	.
16d#]	_	.	.	.	.
16e	not	.	.	.	.
16r	.	.	.	.	.
[16d#	face	.	.	.	.
8d#]	_	.	.	.	.
16c#	the	.	.	.	.
[16B	morn-	.	.	.	.
=33	=33	=33	=33	=33	=33
16B]	_	4r	.	1r	.
16c#	-in'	.	.	.	.
8r	.	.	.	.	.
8.r	.	4r	.	.	.
16B	but	.	.	.	.
8e	ev-	8g#	ev-	.	.
16d#	-ery-	16f#	-ery-	.	.
[16B	-thing's	[16d#	-thing's	.	.
8B]	_	8d#]	_	.	.
[8e	changed	[8g#	changed	.	.
=34	=34	=34	=34	=34	=34
8e]	_	8g#]	_	1r	.
8d#	since	8f#	since	.	.
8r	.	8r	.	.	.
16B	the	16f#	the	.	.
[16e	day	[16g#	day	.	.
8e]	_	8g#]	_	.	.
8d#	that	8f#	that	.	.
8B	I	8e	I	.	.
[8c#	found	[8f#	found	.	.
=35	=35	=35	=35	=35	=35
8c#]	_	8f#]	_	1r	.
8r	.	8r	.	.	.
4r	.	4r	.	.	.
*	*	*clefF4	*	*	*
8c#	Some-	8C#	Some-	.	.
8d#	-one	8D#	-one	.	.
8g#	to	8G#	to	.	.
[8f#	hold	[8F#	hold	.	.
=36	=36	=36	=36	=36	=36
8f#]	_	8F#]	_	1r	.
8g#	me	8G#	me	.	.
8r	.	8r	.	.	.
8B	the	8BB	the	.	.
8B	way	8BB	way	.	.
8c#	that	8C#	that	.	.
8d#	you	8D#	you	.	.
8c#	do	8C#	do	.	.
=37	=37	=37	=37	=37	=37
2r	.	2r	.	1r	.
8c#	Some-	8C#	Some-	.	.
8d#	-one	8D#	-one	.	.
8g#	who	8G#	who	.	.
[8f#	needs	[8F#	needs	.	.
=38	=38	=38	=38	=38	=38
8f#]	_	8F#]	_	1r	.
8g#	me	8G#	me	.	.
8r	.	8r	.	.	.
8B	the	8BB	the	.	.
8B	way	8BB	way	.	.
8c#	I	8C#	I	.	.
8d#	need	8D#	need	.	.
8c#	you	8C#	you	.	.
=39	=39	=39	=39	=39	=39
2r	.	2r	.	1r	.
8c#	Some-	8C#	Some-	.	.
8d#	-one	8D#	-one	.	.
8g#	to	8G#	to	.	.
[8f#	show	[8F#	show	.	.
=40	=40	=40	=40	=40	=40
8f#]	_	8F#]	_	1r	.
8g#	me	8G#	me	.	.
8r	.	8r	.	.	.
8G#	a	8GG#	a	.	.
8B	way	8BB	way	.	.
8c#	that	8C#	that	.	.
8d#	is	8D#	is	.	.
8c#	true	8C#	true	.	.
=41	=41	=41	=41	=41	=41
2r	.	2r	.	1r	.
8e	Some-	8E	Some-	.	.
8d#	-one	8D#	-one	.	.
8B	to	8BB	to	.	.
8e	love	8E	love	.	.
=42	=42	=42	=42	=42	=42
8d#	_	8D#	_	1r	.
2..B	me	2..BB	me	.	.
=43	=43	=43	=43	=43	=43
*	*	*clefG2	*	*	*
4r	.	4r	.	1r	.
8.r	.	8.r	.	.	.
16B	the	16f#	the	.	.
8e	way	8g#	way	.	.
16d#	that	16f#	that	.	.
[16c#	I	[16e	I	.	.
16c#]	_	16e]	_	.	.
8.B	love	8.d#	love	.	.
=44	=44	=44	=44	=44	=44
1c#	you	1e	you	1r	.
=45	=45	=45	=45	=45	=45
1r	.	1r	.	1r	.
=46	=46	=46	=46	=46	=46
1r	.	1r	.	1r	.
=47	=47	=47	=47	=47	=47
1r	.	1r	.	1r	.
=48	=48	=48	=48	=48	=48
1r	.	1r	.	1r	.
=49	=49	=49	=49	=49	=49
1r	.	1r	.	1r	.
=50	=50	=50	=50	=50	=50
8r	.	1r	.	1r	.
16f#	Come	.	.	.	.
8a#	on!	.	.	.	.
16f#	Come	.	.	.	.
8a#	on!	.	.	.	.
16f#	Come	.	.	.	.
8a#	on!	.	.	.	.
16f#	Come	.	.	.	.
8a#	on	.	.	.	.
8f#	now!	.	.	.	.
=51	=51	=51	=51	=51	=51
2r	.	2r	.	1r	.
*	*	*clefF4	*	*	*
8c#	Some-	8C#	Some-	.	.
8d#	-one	8D#	-one	.	.
8g#	to	8G#	to	.	.
[8f#	hold	[8F#	hold	.	.
=52	=52	=52	=52	=52	=52
8f#]	_	8F#]	_	1r	.
8g#	me	8G#	me	.	.
8r	.	8r	.	.	.
8B	the	8BB	the	.	.
8B	way	8BB	way	.	.
8c#	that	8C#	that	.	.
8d#	you	8D#	you	.	.
8c#	do	8C#	do	.	.
=53	=53	=53	=53	=53	=53
2r	.	2r	.	1r	.
8c#	Some-	8C#	Some-	.	.
8d#	-one	8D#	-one	.	.
8g#	who	8G#	who	.	.
[8f#	needs	[8F#	needs	.	.
=54	=54	=54	=54	=54	=54
8f#]	_	8F#]	_	1r	.
8g#	me	8G#	me	.	.
8r	.	8r	.	.	.
8B	the	8BB	the	.	.
8B	way	8BB	way	.	.
8c#	I	8C#	I	.	.
8d#	need	8D#	need	.	.
8c#	you	8C#	you	.	.
=55	=55	=55	=55	=55	=55
2r	.	2r	.	1r	.
8c#	Some-	8C#	Some-	.	.
8d#	-one	8D#	-one	.	.
8g#	to	8G#	to	.	.
[8f#	show	[8F#	show	.	.
=56	=56	=56	=56	=56	=56
8f#]	_	8F#]	_	1r	.
8g#	me	8G#	me	.	.
8r	.	8r	.	.	.
8G#	a	8GG#	a	.	.
8B	way	8BB	way	.	.
8c#	that	8C#	that	.	.
8d#	is	8D#	is	.	.
8c#	true	8C#	true	.	.
=57	=57	=57	=57	=57	=57
2r	.	2r	.	1r	.
8e	Some-	8E	Some-	.	.
8d#	-one	8D#	-one	.	.
8B	to	8BB	to	.	.
8e	love	8E	love	.	.
=58	=58	=58	=58	=58	=58
8d#	_	8D#	_	1r	.
2..B	me	2..BB	me	.	.
=59	=59	=59	=59	=59	=59
2r	.	2r	.	4r	.
.	.	.	.	4b	Yeah!
*	*	*clefF4	*	*	*
8c#	Some-	8C#	Some-	8b	Some
8d#	-one	8D#	-one	8r	.
8g#	to	8G#	to	4r	.
[8f#	hold	[8F#	hold	.	.
=60	=60	=60	=60	=60	=60
8f#]	_	8F#]	_	1r	.
8g#	me	8G#	me	.	.
8r	.	8r	.	.	.
8B	the	8BB	the	.	.
8B	way	8BB	way	.	.
8c#	that	8C#	that	.	.
8d#	you	8D#	you	.	.
8c#	do	8C#	do	.	.
=61	=61	=61	=61	=61	=61
2r	.	2r	.	1r	.
8c#	Some-	8C#	Some-	.	.
8d#	-one	8D#	-one	.	.
8g#	who	8G#	who	.	.
[8f#	needs	[8F#	needs	.	.
=62	=62	=62	=62	=62	=62
8f#]	_	8F#]	_	1r	.
8g#	me	8G#	me	.	.
8r	.	8r	.	.	.
8B	the	8BB	the	.	.
8B	way	8BB	way	.	.
8c#	I	8C#	I	.	.
8d#	need	8D#	need	.	.
8c#	you	8C#	you	.	.
=63	=63	=63	=63	=63	=63
2r	.	2r	.	8r	.
.	.	.	.	8b	Some-
.	.	.	.	16b	-bo-
.	.	.	.	16g#	-dy
.	.	.	.	16f#	who
.	.	.	.	[16b	needs
8c#	Some-	8C#	Some-	16b]	_
.	.	.	.	16b	me
8d#	-one	8D#	-one	8g#	I
8g#	to	8G#	to	12b	got
.	.	.	.	12cc#	me
[8f#	show	[8F#	show	.	.
.	.	.	.	12dd#	X
=64	=64	=64	=64	=64	=64
8f#]	_	8F#]	_	16g#	X
.	.	.	.	16f#	_
8g#	me	8G#	me	16d#	_
.	.	.	.	16d#	_
8r	.	4r	.	8r	.
8G#	a	.	.	8r	.
8B	way	8BB	way	2r	.
8c#	that	8C#	that	.	.
8d#	is	8D#	is	.	.
8c#	true	8C#	true	.	.
=65	=65	=65	=65	=65	=65
2r	.	2r	.	4r	.
.	.	.	.	4b	Yeah!
8f#	Some-	8F#	Some-	2r	.
8e	-one	8E	-one	.	.
8d#	to	8D#	to	.	.
8e	love	8E	love	.	.
=66	=66	=66	=66	=66	=66
8d#	_	8D#	_	1r	.
[8B	me	[8BB	me	.	.
4B_	_	2BB_	_	.	.
4B_	_	.	.	.	.
16B]	_	8BB]	_	.	.
16G#	_	.	.	.	.
8r	.	8r	.	.	.
=67	=67	=67	=67	=67	=67
4r	.	1r	.	1r	.
8.r	.	.	.	.	.
16B	the	.	.	.	.
8e	way	.	.	.	.
16d#	that	.	.	.	.
[16c#	I	.	.	.	.
16c#]	_	.	.	.	.
8.B	love	.	.	.	.
=68	=68	=68	=68	=68	=68
8r	.	1r	.	1r	.
[8B	you	.	.	.	.
2B]	_	.	.	.	.
4r	.	.	.	.	.
=69	=69	=69	=69	=69	=69
1r	.	1r	.	1r	.
=70	=70	=70	=70	=70	=70
1r	.	1r	.	1r	.
=71	=71	=71	=71	=71	=71
1r	.	1r	.	1r	.
=72	=72	=72	=72	=72	=72
1r	.	1r	.	1r	.
=73	=73	=73	=73	=73	=73
1r	.	1r	.	1r	.
=74	=74	=74	=74	=74	=74
1r	.	1r	.	1r	.
=75	=75	=75	=75	=75	=75
1r	.	1r	.	1r	.
=76	=76	=76	=76	=76	=76
1r	.	1r	.	1r	.
r;	.	r;	.	r;	.
r;	.	r;	.	r;	.
*-	*-	*-	*-	*-	*-
!!!ENC: Nathaniel Condit-Schultz